svgs/light/jar.svg

<svg xmlns="http://www.w3.org/2000/svg" viewBox="0 0 320 512"><!--! Font Awesome Pro 6.3.0 by @fontawesome - https://fontawesome.com License - https://fontawesome.com/license (Commercial License) Copyright 2023 Fonticons, Inc. --><path d="M256 0C264.8 0 272 7.164 272 16C272 24.84 264.8 32 256 32H64C55.16 32 48 24.84 48 16C48 7.164 55.16 0 64 0H256zM0 128C0 92.65 28.65 64 64 64H256C291.3 64 320 92.65 320 128V448C320 483.3 291.3 512 256 512H64C28.65 512 0 483.3 0 448V128zM32 128V192H288V128C288 110.3 273.7 96 256 96H64C46.33 96 32 110.3 32 128zM32 352H288V224H32V352zM32 384V448C32 465.7 46.33 480 64 480H256C273.7 480 288 465.7 288 448V384H32z"/></svg>

<svg xmlns="http://www.w3.org/2000/svg" viewBox="0 0 320 512"><!--! Font Awesome Pro 6.4.0 by @fontawesome - https://fontawesome.com License - https://fontawesome.com/license (Commercial License) Copyright 2023 Fonticons, Inc. --><path d="M64 0H256c8.8 0 16 7.2 16 16s-7.2 16-16 16H64c-8.8 0-16-7.2-16-16S55.2 0 64 0zm0 96c-17.7 0-32 14.3-32 32v64H288V128c0-17.7-14.3-32-32-32H64zM32 224V352H288V224H32zm0 160v64c0 17.7 14.3 32 32 32H256c17.7 0 32-14.3 32-32V384H32zM0 128C0 92.7 28.7 64 64 64H256c35.3 0 64 28.7 64 64V448c0 35.3-28.7 64-64 64H64c-35.3 0-64-28.7-64-64V128z"/></svg>
